src/images/telescope-svgrepo-com.svg

<svg version="1.1" xmlns="http://www.w3.org/2000/svg" xmlns:xlink="http://www.w3.org/1999/xlink" width="800px" height="800px" viewBox="0,0,256,256"><g fill="#ffffff" fill-rule="nonzero" stroke="none" stroke-width="1" stroke-linecap="butt" stroke-linejoin="miter" stroke-miterlimit="10" stroke-dasharray="" stroke-dashoffset="0" font-family="none" font-weight="none" font-size="none" text-anchor="none" style="mix-blend-mode: normal"><g transform="translate(0.00009,0.00013) scale(10.66667,10.66667)"><path d="M17.976,2.60214c0.4634,-0.25959 0.766,-0.42785 1.0065,-0.52377c0.2265,-0.09032 0.3257,-0.08572 0.3933,-0.06817c0.0667,0.01734 0.1533,0.06038 0.3016,0.24683c0.1582,0.1989 0.3331,0.4905 0.6008,0.94044l1.1039,1.85503c0.2678,0.45007 0.4406,0.7426 0.5389,0.97465c0.0923,0.218 0.0853,0.30799 0.0694,0.36586c-0.0163,0.05875 -0.0578,0.14172 -0.2519,0.28702c-0.2056,0.15394 -0.5069,0.32397 -0.9704,0.58363l-3.932,2.20252c-0.4386,0.24567 -0.7223,0.40335 -0.9471,0.49281c-0.2106,0.08381 -0.2965,0.07681 -0.3509,0.06241c-0.0544,-0.0144 -0.1323,-0.05068 -0.2723,-0.2272c-0.1493,-0.18838 -0.3152,-0.46495 -0.5706,-0.89413l-1.179,-1.98126c-0.2623,-0.44085 -0.4311,-0.72669 -0.5272,-0.9533c-0.0903,-0.21271 -0.0831,-0.29912 -0.0684,-0.35349c0.0148,-0.05436 0.0523,-0.13274 0.2383,-0.27241c0.198,-0.14881 0.489,-0.31307 0.9395,-0.56542z"></path><path d="M8.63783,8.4508l3.44927,-1.93211c0.1268,0.26307 0.3036,0.56022 0.5037,0.89645l1.2142,2.04031c0.1832,0.30789 0.3467,0.58265 0.5043,0.80725l-1.5469,0.8665l4.176,9.789c0.1692,0.3966 -0.0194,0.8535 -0.4212,1.0205c-0.4019,0.167 -0.8648,-0.0191 -1.034,-0.4157l-3.4829,-8.1645l-3.48298,8.1645c-0.1692,0.3966 -0.63213,0.5827 -1.03397,0.4157c-0.40185,-0.167 -0.59045,-0.6239 -0.42125,-1.0205l3.6973,-8.667c-0.4024,0.2252 -0.6693,0.3719 -0.88288,0.4569c-0.2106,0.0838 -0.29653,0.0768 -0.3509,0.0624c-0.05438,-0.0144 -0.13235,-0.0507 -0.27228,-0.2272c-0.14934,-0.1884 -0.3152,-0.465 -0.57059,-0.8941l-0.62706,-1.0538c-0.26233,-0.4408 -0.43112,-0.72667 -0.52729,-0.95328c-0.09026,-0.21271 -0.0831,-0.29912 -0.06835,-0.35349c0.01476,-0.05436 0.05233,-0.13274 0.23825,-0.27241c0.19808,-0.14881 0.48904,-0.31307 0.93953,-0.56542z"></path><path d="M6.62684,10.196l-3.3949,1.9016c-0.46355,0.2597 -0.76486,0.4297 -0.97046,0.5837c-0.19407,0.1453 -0.23562,0.2282 -0.25184,0.287c-0.01599,0.0579 -0.02297,0.1479 0.06938,0.3659c0.0983,0.232 0.27105,0.5245 0.53888,0.9746c0.26774,0.4499 0.44258,0.7415 0.60078,0.9404c0.1483,0.1865 0.23496,0.2295 0.30167,0.2469c0.06753,0.0175 0.16672,0.0221 0.39323,-0.0682c0.24053,-0.0959 0.54314,-0.2642 1.00656,-0.5238l3.37709,-1.8917c-0.1578,-0.2247 -0.32134,-0.4996 -0.50474,-0.8078l-0.66219,-1.1128c-0.19995,-0.336 -0.37667,-0.6329 -0.50346,-0.8958z"></path></g></g></svg>

<?xml version="1.0" encoding="utf-8"?><!-- Uploaded to: SVG Repo, www.svgrepo.com, Generator: SVG Repo Mixer Tools -->
<svg width="800px" height="800px" viewBox="0 0 24 24" fill="none" xmlns="http://www.w3.org/2000/svg">
<path d="M17.976 2.60214C18.4394 2.34255 18.742 2.17429 18.9825 2.07837C19.209 1.98805 19.3082 1.99265 19.3758 2.0102C19.4425 2.02754 19.5291 2.07058 19.6774 2.25703C19.8356 2.45593 20.0105 2.74753 20.2782 3.19747L21.3821 5.0525C21.6499 5.50257 21.8227 5.7951 21.921 6.02715C22.0133 6.24515 22.0063 6.33514 21.9904 6.39301C21.9741 6.45176 21.9326 6.53473 21.7385 6.68003C21.5329 6.83397 21.2316 7.004 20.7681 7.26366L16.8361 9.46618C16.3975 9.71185 16.1138 9.86953 15.889 9.95899C15.6784 10.0428 15.5925 10.0358 15.5381 10.0214C15.4837 10.007 15.4058 9.97072 15.2658 9.7942C15.1165 9.60582 14.9506 9.32925 14.6952 8.90007L13.5162 6.91881C13.2539 6.47796 13.0851 6.19212 12.989 5.96551C12.8987 5.7528 12.9059 5.66639 12.9206 5.61202C12.9354 5.55766 12.9729 5.47928 13.1589 5.33961C13.3569 5.1908 13.6479 5.02654 14.0984 4.77419L17.976 2.60214Z" fill="#1C274C"/>
<path d="M8.63783 8.4508L12.0871 6.51869C12.2139 6.78176 12.3907 7.07891 12.5908 7.41514L13.805 9.45545C13.9882 9.76334 14.1517 10.0381 14.3093 10.2627L12.7624 11.1292L16.9384 20.9182C17.1076 21.3148 16.919 21.7717 16.5172 21.9387C16.1153 22.1057 15.6524 21.9196 15.4832 21.523L12.0003 13.3585L8.51732 21.523C8.34812 21.9196 7.88519 22.1057 7.48335 21.9387C7.0815 21.7717 6.8929 21.3148 7.0621 20.9182L10.7594 12.2512C10.357 12.4764 10.0901 12.6231 9.87652 12.7081C9.66592 12.7919 9.57999 12.7849 9.52562 12.7705C9.47124 12.7561 9.39327 12.7198 9.25334 12.5433C9.104 12.3549 8.93814 12.0783 8.68275 11.6492L8.05569 10.5954C7.79336 10.1546 7.62457 9.86873 7.5284 9.64212C7.43814 9.42941 7.4453 9.343 7.46005 9.28863C7.47481 9.23427 7.51238 9.15589 7.6983 9.01622C7.89638 8.86741 8.18734 8.70315 8.63783 8.4508Z" fill="#1C274C"/>
<path d="M6.62684 10.196L3.23194 12.0976C2.76839 12.3573 2.46708 12.5273 2.26148 12.6813C2.06741 12.8266 2.02586 12.9095 2.00964 12.9683C1.99365 13.0262 1.98667 13.1162 2.07902 13.3342C2.17732 13.5662 2.35007 13.8587 2.6179 14.3088C2.88564 14.7587 3.06048 15.0503 3.21868 15.2492C3.36698 15.4357 3.45364 15.4787 3.52035 15.4961C3.58788 15.5136 3.68707 15.5182 3.91358 15.4279C4.15411 15.332 4.45672 15.1637 4.92014 14.9041L8.29723 13.0124C8.13943 12.7877 7.97589 12.5128 7.79249 12.2046L7.1303 11.0918C6.93035 10.7558 6.75363 10.4589 6.62684 10.196Z" fill="#1C274C"/>
</svg>
